packages/match-icons/product/svg/supersim.svg

<svg fill="none" height="32" viewBox="0 0 32 32" width="32" xmlns="http://www.w3.org/2000/svg"><g fill="#394762"><path d="m29.9 4.5c-.0446-.12577-.1138-.24134-.2037-.33993-.09-.09858-.1987-.17817-.3198-.23408-.1212-.05591-.2523-.08702-.3856-.09148-.1334-.00447-.2663.0178-.3909.06549l-2.6.8v-2.7c0-.26522-.1054-.51957-.2929-.70711-.1875-.18753-.4419-.29289-.7071-.29289s-.5196.10536-.7071.29289c-.1875.18754-.2929.44189-.2929.70711v2.7l-2.6-.8c-.1246-.04769-.2575-.06996-.3909-.06549-.1333.00446-.2644.03557-.3856.09148-.1211.05591-.2298.1355-.3198.23408-.0899.09859-.1591.21416-.2037.33993-.0477.12461-.07.25751-.0655.39086s.0356.26446.0915.38561c.0559.12114.1355.22987.2341.31979.0986.08991.2141.15918.3399.20374l2.6.8-1.6 2.2c-.1406.2184-.1977.48016-.161.73729s.1649.49241.361.66271c.1824.1109.3875.1793.6.2.1565.0078.3124-.0249.4525-.0949.1402-.0701.2599-.1752.3475-.3051l1.6-2.2 1.6 2.2c.278.2435.6308.3846 1 .4.2125-.0207.4176-.0891.6-.2.1998-.1678.3307-.40345.3676-.66177s-.0228-.52117-.1676-.73823l-1.6-2.2 2.6-.8c.1258-.04456.2413-.11383.3399-.20374.0986-.08992.1782-.19865.2341-.31979.0559-.12115.087-.25226.0915-.38561s-.0178-.26625-.0655-.39086z"/><path d="m6 17v10c0 .2652.10536.5196.29289.7071.18754.1875.44189.2929.70711.2929h8c.2652 0 .5196-.1054.7071-.2929s.2929-.4419.2929-.7071v-10c0-.2652-.1054-.5196-.2929-.7071s-.4419-.2929-.7071-.2929h-8c-.26522 0-.51957.1054-.70711.2929-.18753.1875-.29289.4419-.29289.7071zm8 3.6-2.6-2.6h2.6zm-6 2.8 2.6 2.6h-2.6zm5.4 2.6-5.4-5.4v-2.6h.6l5.4 5.4v2.6zm3.6-17.5c-.3263-.30635-.7527-.48399-1.2-.5h-11.3c-.66304 0-1.29893.26339-1.76777.73223s-.73223 1.10473-.73223 1.76777v19c0 .663.26339 1.2989.73223 1.7678.46884.4688 1.10473.7322 1.76777.7322h13c.663 0 1.2989-.2634 1.7678-.7322.4688-.4689.7322-1.1048.7322-1.7678v-17.3c-.0175-.4177-.1968-.8122-.5-1.1zm.5 21.5h-13c-.13261 0-.25979-.0527-.35355-.1464-.09377-.0938-.14645-.221-.14645-.3536v-19c0-.1326.05268-.2598.14645-.3536.09376-.0937.22094-.1464.35355-.1464h11.1l2.4 2.4v17.1c0 .1326-.0527.2598-.1464.3536-.0938.0937-.221.1464-.3536.1464z"/></g></svg>

<svg width="32" height="32" viewBox="0 0 32 32" fill="none" xmlns="http://www.w3.org/2000/svg">
<path d="M29.9 4.5C29.8554 4.37423 29.7862 4.25866 29.6963 4.16007C29.6063 4.06149 29.4976 3.9819 29.3765 3.92599C29.2553 3.87008 29.1242 3.83897 28.9909 3.83451C28.8575 3.83004 28.7246 3.85231 28.6 3.9L26 4.7V2C26 1.73478 25.8946 1.48043 25.7071 1.29289C25.5196 1.10536 25.2652 1 25 1C24.7348 1 24.4804 1.10536 24.2929 1.29289C24.1054 1.48043 24 1.73478 24 2V4.7L21.4 3.9C21.2754 3.85231 21.1425 3.83004 21.0091 3.83451C20.8758 3.83897 20.7447 3.87008 20.6235 3.92599C20.5024 3.9819 20.3937 4.06149 20.3037 4.16007C20.2138 4.25866 20.1446 4.37423 20.1 4.5C20.0523 4.62461 20.03 4.75751 20.0345 4.89086C20.039 5.02421 20.0701 5.15532 20.126 5.27647C20.1819 5.39761 20.2615 5.50634 20.3601 5.59626C20.4587 5.68617 20.5742 5.75544 20.7 5.8L23.3 6.6L21.7 8.8C21.5594 9.0184 21.5023 9.28016 21.539 9.53729C21.5757 9.79442 21.7039 10.0297 21.9 10.2C22.0824 10.3109 22.2875 10.3793 22.5 10.4C22.6565 10.4078 22.8124 10.3751 22.9525 10.3051C23.0927 10.235 23.2124 10.1299 23.3 10L24.9 7.8L26.5 10C26.778 10.2435 27.1308 10.3846 27.5 10.4C27.7125 10.3793 27.9176 10.3109 28.1 10.2C28.2998 10.0322 28.4307 9.79655 28.4676 9.53823C28.5045 9.27991 28.4448 9.01706 28.3 8.8L26.7 6.6L29.3 5.8C29.4258 5.75544 29.5413 5.68617 29.6399 5.59626C29.7385 5.50634 29.8181 5.39761 29.874 5.27647C29.9299 5.15532 29.961 5.02421 29.9655 4.89086C29.97 4.75751 29.9477 4.62461 29.9 4.5Z" fill="#394762"/>
<path d="M6 17V27C6 27.2652 6.10536 27.5196 6.29289 27.7071C6.48043 27.8946 6.73478 28 7 28H15C15.2652 28 15.5196 27.8946 15.7071 27.7071C15.8946 27.5196 16 27.2652 16 27V17C16 16.7348 15.8946 16.4804 15.7071 16.2929C15.5196 16.1054 15.2652 16 15 16H7C6.73478 16 6.48043 16.1054 6.29289 16.2929C6.10536 16.4804 6 16.7348 6 17ZM14 20.6L11.4 18H14V20.6ZM8 23.4L10.6 26H8V23.4ZM13.4 26L8 20.6V18H8.6L14 23.4V26H13.4ZM17 8.5C16.6737 8.19365 16.2473 8.01601 15.8 8H4.5C3.83696 8 3.20107 8.26339 2.73223 8.73223C2.26339 9.20107 2 9.83696 2 10.5V29.5C2 30.163 2.26339 30.7989 2.73223 31.2678C3.20107 31.7366 3.83696 32 4.5 32H17.5C18.163 32 18.7989 31.7366 19.2678 31.2678C19.7366 30.7989 20 30.163 20 29.5V12.2C19.9825 11.7823 19.8032 11.3878 19.5 11.1L17 8.5ZM17.5 30H4.5C4.36739 30 4.24021 29.9473 4.14645 29.8536C4.05268 29.7598 4 29.6326 4 29.5V10.5C4 10.3674 4.05268 10.2402 4.14645 10.1464C4.24021 10.0527 4.36739 10 4.5 10H15.6L18 12.4V29.5C18 29.6326 17.9473 29.7598 17.8536 29.8536C17.7598 29.9473 17.6326 30 17.5 30Z" fill="#394762"/>
</svg>
